public/svg/icon/data.svg

<svg xmlns="http://www.w3.org/2000/svg" xmlns:xlink="http://www.w3.org/1999/xlink" width="32" height="32" viewBox="0 0 32 32"><defs><linearGradient id="data-c" x1="50%" x2="50%" y1="0%" y2="100%"><stop offset="0%" stop-color="#FFF" stop-opacity=".5"/><stop offset="100%" stop-opacity=".5"/></linearGradient><circle id="data-b" cx="16" cy="15" r="15"/><filter id="data-a" width="111.7%" height="111.7%" x="-5.8%" y="-4.2%" filterUnits="objectBoundingBox"><feOffset dy=".5" in="SourceAlpha" result="shadowOffsetOuter1"/><feGaussianBlur in="shadowOffsetOuter1" result="shadowBlurOuter1" stdDeviation=".5"/><feComposite in="shadowBlurOuter1" in2="SourceAlpha" operator="out" result="shadowBlurOuter1"/><feColorMatrix in="shadowBlurOuter1" values="0 0 0 0 0 0 0 0 0 0 0 0 0 0 0 0 0 0 0.199473505 0"/></filter><path id="data-e" d="M24.1396455,8.91370737 L25.7467019,7.32040402 C26.1261374,6.94399223 26.0484157,6.25633605 25.5731132,5.78487179 C25.0978108,5.31340752 24.4037584,5.236446 24.0243229,5.61285779 L21.0079923,8.60346249 L20.9050689,8.70551147 L18.2772463,11.3109088 C16.5088995,10.02845 14.006581,10.1785749 12.4103108,11.7612836 C10.8140407,13.3439922 10.6626294,15.8248518 11.9560769,17.578375 L9.95002855,19.5673805 C9.46283097,18.9235025 9.05557291,18.1658813 8.76111726,17.274527 C8.08773017,15.2370457 8.26877855,13.0045619 9.36031081,11.1653815 C11.0639398,8.29531656 14.1117221,7.0474405 16.9988189,7.41325759 C17.6188794,7.49171836 18.1768431,7.0454415 18.2145447,6.42715065 C18.2569842,5.73349747 17.7385366,5.12480182 17.0405527,5.05333755 C14.1395447,4.75588628 11.1405527,5.70231307 8.92553259,7.89851496 C5.25617775,11.5366959 5.04095597,17.3078103 8.26625839,21.2369457 L6.42543178,23.0622331 C6.06252855,23.4220532 6.15325436,24.096516 6.62875839,24.5678803 C7.10426243,25.0392446 7.78430275,25.1298993 8.14720597,24.7700792 L10.1281536,22.8058613 L10.1291616,22.8050617 L11.5606132,21.3857713 C11.5617221,21.3846719 11.5626294,21.3834725 11.5637382,21.3822731 L13.8860165,19.0797244 C15.5237181,19.7459912 17.4786576,19.4209537 18.8067826,18.1041122 C20.1349076,16.7872706 20.4625286,14.8491397 19.7906536,13.2254515 L22.4251294,10.6135574 C24.3559761,13.5221032 23.9725084,17.5475904 21.3153511,20.1820732 C19.6233148,21.8598343 17.3616213,22.6221531 15.1848068,22.4609338 C14.6629318,22.4218533 14.2007342,22.8294495 14.1548673,23.3492896 L14.1268431,23.6691297 C14.0750286,24.2631327 14.5199882,24.7653815 15.1183753,24.7985649 C17.9059761,24.9548868 20.7808753,23.9529877 22.9497261,21.8025629 C26.5469036,18.2356464 26.9627302,12.7419932 24.1396455,8.91370737 M17.1385366,16.4491397 C16.2951898,17.2853216 14.9225084,17.2853216 14.0791616,16.4491397 C13.2358148,15.6129577 13.2358148,14.2521382 14.0791616,13.4157563 C14.9225084,12.5793745 16.2952907,12.5795744 17.1385366,13.4157563 C17.9817826,14.2519383 17.9818834,15.6129577 17.1385366,16.4491397"/><filter id="data-d" width="117.5%" height="117.5%" x="-8.8%" y="-6.3%" filterUnits="objectBoundingBox"><feOffset dy=".5" in="SourceAlpha" result="shadowOffsetOuter1"/><feGaussianBlur in="shadowOffsetOuter1" result="shadowBlurOuter1" stdDeviation=".5"/><feColorMatrix in="shadowBlurOuter1" values="0 0 0 0 0 0 0 0 0 0 0 0 0 0 0 0 0 0 0.204257246 0"/></filter></defs><g fill="none" fill-rule="evenodd"><g fill-rule="nonzero"><use fill="#000" filter="url(#data-a)" xlink:href="#data-b"/><use fill="#E9570F" fill-rule="evenodd" xlink:href="#data-b"/><use fill="url(#data-c)" fill-rule="evenodd" style="mix-blend-mode:soft-light" xlink:href="#data-b"/><circle cx="16" cy="15" r="14.5" stroke="#000" stroke-opacity=".097"/></g><g fill-rule="nonzero"><use fill="#000" filter="url(#data-d)" xlink:href="#data-e"/><use fill="#FFF" fill-rule="evenodd" xlink:href="#data-e"/></g></g></svg>

<svg xmlns="http://www.w3.org/2000/svg" xmlns:xlink="http://www.w3.org/1999/xlink" width="32" height="32" viewBox="0 0 32 32"><defs><filter id="a" width="111.7%" height="111.7%" x="-5.8%" y="-4.2%" filterUnits="objectBoundingBox"><feOffset dy=".5" in="SourceAlpha" result="shadowOffsetOuter1"/><feGaussianBlur in="shadowOffsetOuter1" result="shadowBlurOuter1" stdDeviation=".5"/><feComposite in="shadowBlurOuter1" in2="SourceAlpha" operator="out" result="shadowBlurOuter1"/><feColorMatrix in="shadowBlurOuter1" values="0 0 0 0 0 0 0 0 0 0 0 0 0 0 0 0 0 0 0.199473505 0"/></filter><filter id="d" width="117.5%" height="117.5%" x="-8.8%" y="-6.3%" filterUnits="objectBoundingBox"><feOffset dy=".5" in="SourceAlpha" result="shadowOffsetOuter1"/><feGaussianBlur in="shadowOffsetOuter1" result="shadowBlurOuter1" stdDeviation=".5"/><feColorMatrix in="shadowBlurOuter1" values="0 0 0 0 0 0 0 0 0 0 0 0 0 0 0 0 0 0 0.204257246 0"/></filter><linearGradient id="c" x1="50%" x2="50%" y1="0%" y2="100%"><stop offset="0%" stop-color="#FFF" stop-opacity=".5"/><stop offset="100%" stop-opacity=".5"/></linearGradient><circle id="b" cx="16" cy="15" r="15"/><path id="e" d="M24.14 8.914l1.607-1.594c.38-.376.301-1.064-.174-1.535-.475-.472-1.17-.549-1.549-.172l-3.016 2.99-.103.103-2.628 2.605a4.56 4.56 0 00-5.867.45 4.464 4.464 0 00-.454 5.817l-2.006 1.99a7.844 7.844 0 01-1.189-2.293c-.673-2.038-.492-4.27.6-6.11 1.703-2.87 4.75-4.118 7.638-3.752a1.07 1.07 0 001.216-.986 1.307 1.307 0 00-1.174-1.374c-2.901-.297-5.9.65-8.115 2.846-3.67 3.638-3.885 9.409-.66 13.338l-1.84 1.825c-.363.36-.273 1.035.203 1.506.475.471 1.155.562 1.518.202l1.981-1.964h.001l1.432-1.42.003-.004 2.322-2.302a4.558 4.558 0 004.92-.976 4.463 4.463 0 00.985-4.879l2.634-2.611c1.931 2.908 1.548 6.934-1.11 9.568a7.886 7.886 0 01-6.13 2.279.978.978 0 00-1.03.888l-.028.32a1.038 1.038 0 00.991 1.13 10.306 10.306 0 007.832-2.996c3.597-3.567 4.013-9.061 1.19-12.89m-7.001 7.536a2.18 2.18 0 01-3.06 0 2.135 2.135 0 010-3.033 2.179 2.179 0 013.06 0 2.135 2.135 0 010 3.033"/></defs><g fill="none"><use fill="#000" filter="url(#a)" xlink:href="#b"/><use fill="#E9570F" fill-rule="evenodd" xlink:href="#b"/><use fill="url(#c)" fill-rule="evenodd" style="mix-blend-mode:soft-light" xlink:href="#b"/><circle cx="16" cy="15" r="14.5" stroke="#000" stroke-opacity=".097"/><use fill="#000" filter="url(#d)" xlink:href="#e"/><use fill="#FFF" fill-rule="evenodd" xlink:href="#e"/></g></svg>
